X:1
T:Goronwy Owain
C:Trad
L:1/8
Q:1/8=180
M:3/4
I:linebreak $
K:Gmin
V:1 treble 
V:1
 (3ABc | dA BG A^F | G2 e2 d2 | cd ed cB | AG F=E D2 | dA BG A^F | G2 e2 d2 | c2 B2 A2 | G4 :| %9
 Bc |$ d2 de cd | B2 Bc de | f2 fg ef | d4 Bc | d2 de cd | B2 B2 A2 | G2 GA Bc | d4 (3ABc | %18
 dA BG A^F |$ G2 e2 d2 | cd ed cB | AG F=E D2 | dA BG A^F | G2 e2 d2 | c2 B2 A2 | G4 :| %26
